packages/shared/assets/illustrations/send-mobile.svg

<svg width="760" height="600" fill="none" version="1.1" viewBox="0 0 760 600" xmlns="http://www.w3.org/2000/svg">
 <path d="m530.1 413.8c-6.506-11.233-22.817-11.233-29.323-0.093l-22.157 37.633c-6.317 10.672 0.755 24.246 13.2 25.276l46.388 4.025c13.672 1.217 23.006-13.387 16.217-25.182l-24.325-41.659z" fill="#FF9176"/>
 <path d="m560.25 431.72c1.986-1.09 2.681-3.668 1.49-5.651l-10.228-17.647c-1.092-1.983-3.673-2.677-5.659-1.487-1.986 1.09-2.681 3.668-1.49 5.651l10.227 17.647c1.093 1.983 3.674 2.578 5.66 1.487z" fill="url(#paint0_linear_1_66)"/>
 <path d="m527 200.43c0-55.52-41.604-100.43-92.938-100.43h-109.02c-51.335 0-93.038 44.912-93.038 100.43v198.48c0 55.52 41.604 100.43 92.938 100.43h109.02c51.335 0 92.939-45.011 92.939-100.43v-198.48h0.099z" fill="#628AF1"/>
 <path d="m232.5 248.72c18.371 0 33.263-14.87 33.263-33.213s-14.892-33.213-33.263-33.213-33.263 14.87-33.263 33.213 14.892 33.213 33.263 33.213z" fill="#37E5D7"/>
 <path d="m232.5 236.82c11.79 0 21.348-9.543 21.348-21.316 0-11.772-9.558-21.316-21.348-21.316s-21.348 9.544-21.348 21.316c0 11.773 9.558 21.316 21.348 21.316z" fill="#1DD5C6"/>
 <path d="m422.92 319.11c-1.702-1.834-0.563-4.969 1.931-5.168 7.796-0.624 15.502-1.482 23.112-2.582 8.505-1.2 15.061-7.897 15.985-16.057 3.999-34.405 4.431-69.056 1.463-103.76-0.644-8.804-7.855-15.917-16.759-16.711-41.118-3.916-85.003-4.09-130.87-1.54-9.18 0.616-16.653 7.608-17.627 16.479-3.438 34.086-3.846 68.382-1.21 102.71 0.669 8.448 7.357 15.346 15.867 16.65 9.308 1.392 18.538 2.559 27.684 3.486 2.494 0.253 3.549 3.424 1.79 5.21-6.141 6.237-12.157 14.061-17.957 23.55-36.572 60.491-32.765 91.251-32.765 151.73 15.887 6.725 34.868 7.308 63.609 6.725 6.752-0.137 13.831-0.28 21.285-0.28 6.47 0 12.851 0.089 19.089 0.177 29.657 0.418 56.113 0.79 73.751-8.748 0-47.941-4.166-100.98-32.271-149.6-5.025-8.693-10.427-16.141-16.107-22.262z" fill="url(#paint1_linear_1_66)"/>
 <path d="m387.1 301.23c35.481-2.78 61.86-28.358 58.888-57.086-2.972-28.729-33.995-49.673-69.476-46.707-35.482 2.78-61.86 28.358-58.888 57.086s33.995 49.672 69.476 46.707z" fill="#CAD9FF"/>
 <path d="m445.34 241.35c-3.158-28.172-34.367-48.375-69.662-44.853-35.296 3.521-61.303 29.099-58.145 57.457 3.158 28.172 34.367 48.375 69.662 44.853s61.303-29.284 58.145-57.457z" fill="url(#paint2_linear_1_66)"/>
 <path d="m416.8 255.79c-3.539-1.025-5.594-4.67-4.567-8.201 1.028-3.532 4.681-5.582 8.22-4.557s5.594 4.671 4.567 8.202c-1.142 3.531-4.795 5.581-8.22 4.556z" fill="#9198BF"/>
 <path d="m412.23 248.38c0.342-3.304 3.311-5.696 6.736-5.354 3.311 0.342 5.708 3.303 5.366 6.721-0.343 3.303-3.311 5.695-6.736 5.353-3.311-0.455-5.709-3.417-5.366-6.72z" fill="#3B4965"/>
 <path d="m413.94 248.16c-0.571-0.911 0.114-2.506 1.484-3.303 1.37-0.911 3.083-0.798 3.654 0.114 0.571 0.911-0.114 2.506-1.484 3.303-1.485 0.911-3.083 0.797-3.654-0.114z" fill="#40578C"/>
 <path d="m415.08 246.68c-0.228-0.342 0-0.911 0.571-1.253s1.142-0.342 1.37 0 0 0.911-0.571 1.253c-0.457 0.342-1.142 0.342-1.37 0z" fill="#9FB1D5"/>
 <path d="m418.05 249.18c1.142-0.684 2.17-1.823 2.512-2.848 0.228-0.57 0.913-0.911 1.37-0.57 0.799 1.026 1.37 2.279 1.142 3.759-0.343 2.62-2.626 4.443-5.252 4.215-1.827-0.228-3.197-1.253-3.882-2.734-0.228-0.569 0.229-0.911 0.799-1.025 1.028 0.114 2.17-0.228 3.311-0.797z" fill="#2B3956"/>
 <path d="m344.07 255.79c-3.539-1.025-5.594-4.67-4.566-8.201 1.027-3.532 4.68-5.582 8.22-4.557 3.539 1.025 5.594 4.671 4.566 8.202-1.141 3.531-4.795 5.581-8.22 4.556z" fill="#9198BF"/>
 <path d="m339.5 248.38c0.343-3.304 3.311-5.696 6.736-5.354 3.311 0.342 5.708 3.303 5.366 6.721-0.343 3.303-3.311 5.695-6.736 5.353-3.311-0.455-5.708-3.417-5.366-6.72z" fill="#3B4965"/>
 <path d="m341.21 248.16c-0.571-0.911 0.114-2.506 1.484-3.303 1.37-0.911 3.082-0.798 3.653 0.114 0.571 0.911-0.114 2.506-1.484 3.303-1.484 0.911-3.083 0.797-3.653-0.114z" fill="#40578C"/>
 <path d="m342.35 246.68c-0.228-0.342 0-0.911 0.571-1.253s1.142-0.342 1.37 0 0 0.911-0.571 1.253c-0.456 0.342-1.141 0.342-1.37 0z" fill="#9FB1D5"/>
 <path d="m345.32 249.18c1.141-0.684 2.169-1.823 2.511-2.848 0.229-0.57 0.914-0.911 1.37-0.57 0.8 1.026 1.37 2.279 1.142 3.759-0.342 2.62-2.626 4.443-5.252 4.215-1.826-0.228-3.196-1.253-3.881-2.734-0.229-0.569 0.228-0.911 0.799-1.025 1.027 0.114 2.169-0.228 3.311-0.797z" fill="#2B3956"/>
 <path d="m439.79 329.61c-5.235-0.469-9.197-0.823-12.681-6.042 2.104 4.201 4.855 9.08 7.855 14.398 9.033 16.018 20.316 36.024 22.925 53.516-0.582-0.503-1.511-1.348-2.731-2.458-8.702-7.917-32.245-29.336-50.777-36.587-2.215-3.79-5.519-5.329-8.171-6.565-2.188-1.019-3.933-1.832-4.256-3.532-0.907-4.766-8.725 0.784-4.155 6.453 0.504 0.626 1.03 1.211 1.562 1.756-0.686 0.201-1.343 0.46-1.97 0.78-19.361 3.965-22.836 22.802-1e-3 16.854 7.136 3.21 17.55 14.595 28.87 26.97 11.786 12.884 24.552 26.839 35.619 33.759 23.386 14.62 41.375 4.705 38.776-24.542-0.861-9.695-7.231-47.768-22.835-61.964-12.542-11.41-21.329-12.197-28.03-12.796z" fill="url(#paint3_linear_1_66)"/>
 <path d="m337.75 325.06c-4.965 5.452-20.852 1.487-37.731 15.862-16.88 14.376-23.216 53.757-24.077 63.452-2.599 29.247 15.39 39.162 38.776 24.542 21.698-13.566 52.654-20.965 67.218-27.516 12.411-5.583 12.411-9.914-1e-3 -16.855-18.623-9.491-67.018 1.576-73.226 6.941 3.475-23.299 20.601-49.572 29.041-66.426z" fill="url(#paint4_linear_1_66)"/>
 <path d="m369.56 402.65c-2.241-3.043-8.881 0.834-15.429-3.838l5.12-6.174c0.955 0.046 6.124 0.158 11.241 2.605 6.397 3.06 1.87 11.211-0.932 7.407z" fill="url(#paint5_linear_1_66)"/>
 <path d="m382.92 365.6-3.526 0.533c-3.828 0.543-6.976 5.507-7.314 12.186-0.411 7.697 3.01 14.777 7.691 15.787 0.599 0.13 1.24 0.146 1.847 0.051l3.526-0.533c-0.607 0.096-1.209 0.04-1.847-0.051-4.681-1.01-8.102-8.09-7.691-15.787 0.338-6.678 3.447-11.604 7.314-12.186z" fill="#628AF1"/>
 <path d="m392.42 381.48c0.41-7.698-3.01-14.777-7.692-15.787-4.681-1.01-8.787 4.401-9.161 12.135-0.41 7.698 3.01 14.777 7.692 15.787 4.681 1.01 8.75-4.437 9.161-12.135z" fill="#B7C5FF"/>
 <path d="m389.4 380.78c0.237-4.834-2.123-10.331-5.069-10.926-2.908-0.634-5.272 3.778-5.508 8.612s2.141 10.387 5.049 11.02c2.943 0.669 5.292-3.872 5.528-8.706z" fill="#abf"/>
 <defs>
  <linearGradient id="paint0_linear_1_66" x1="557.31" x2="550.51" y1="415.98" y2="421.35" gradientUnits="userSpaceOnUse">
   <stop stop-color="#FFF384" offset="0"/>
   <stop stop-color="#FFE485" offset="1"/>
  </linearGradient>
  <linearGradient id="paint1_linear_1_66" x1="380.01" x2="380.01" y1="171.52" y2="500.02" gradientUnits="userSpaceOnUse">
   <stop stop-color="#fff" offset="0"/>
   <stop stop-color="#E8EAF8" offset=".49479"/>
   <stop stop-color="#E3E5F7" offset=".67188"/>
   <stop stop-color="#B1B7E9" offset="1"/>
  </linearGradient>
  <linearGradient id="paint2_linear_1_66" x1="382.11" x2="382.11" y1="196.17" y2="299.28" gradientUnits="userSpaceOnUse">
   <stop stop-color="#EAECFF" offset="0"/>
   <stop stop-color="#BCC2F4" offset="1"/>
  </linearGradient>
  <linearGradient id="paint3_linear_1_66" x1="475.76" x2="372" y1="345.88" y2="345.88" gradientUnits="userSpaceOnUse">
   <stop stop-color="#E0E2F6" offset="0"/>
   <stop stop-color="#fff" offset="1"/>
  </linearGradient>
  <linearGradient id="paint4_linear_1_66" x1="290.83" x2="394.59" y1="345.88" y2="345.88" gradientUnits="userSpaceOnUse">
   <stop stop-color="#E0E2F6" offset="0"/>
   <stop stop-color="#E6E8F8" offset=".26131"/>
   <stop stop-color="#fff" offset="1"/>
  </linearGradient>
  <linearGradient id="paint5_linear_1_66" x1="371.42" x2="358.42" y1="404.42" y2="393.64" gradientUnits="userSpaceOnUse">
   <stop stop-color="#fff" offset="0"/>
   <stop stop-color="#fff" offset=".71354"/>
   <stop stop-color="#fff" stop-opacity="0" offset="1"/>
  </linearGradient>
 </defs>
</svg>

<svg width="760" height="600" viewBox="0 0 760 600" fill="none" xmlns="http://www.w3.org/2000/svg">
<path d="M530.095 413.798C523.589 402.565 507.278 402.565 500.772 413.705L478.615 451.338C472.298 462.01 479.37 475.584 491.815 476.614L538.203 480.639C551.875 481.856 561.209 467.252 554.42 455.457L530.095 413.798Z" fill="#FF9176"/>
<path d="M560.252 431.722C562.238 430.632 562.933 428.054 561.742 426.071L551.514 408.424C550.422 406.441 547.841 405.747 545.855 406.937C543.869 408.027 543.174 410.605 544.365 412.588L554.592 430.235C555.685 432.218 558.266 432.813 560.252 431.722Z" fill="url(#paint0_linear_1_66)"/>
<path d="M527 200.432C527 144.912 485.396 100 434.062 100H325.038C273.703 100 232 144.912 232 200.432V398.917C232 454.437 273.604 499.349 324.938 499.349H433.962C485.297 499.349 526.901 454.338 526.901 398.917V200.432H527Z" fill="#628AF1"/>
<path d="M232.496 248.715C250.867 248.715 265.759 233.845 265.759 215.502C265.759 197.159 250.867 182.289 232.496 182.289C214.125 182.289 199.233 197.159 199.233 215.502C199.233 233.845 214.125 248.715 232.496 248.715Z" fill="#37E5D7"/>
<path d="M232.497 236.818C244.287 236.818 253.845 227.275 253.845 215.502C253.845 203.73 244.287 194.186 232.497 194.186C220.707 194.186 211.149 203.73 211.149 215.502C211.149 227.275 220.707 236.818 232.497 236.818Z" fill="#1DD5C6"/>
<path d="M422.917 319.113C421.215 317.279 422.354 314.144 424.848 313.945C432.644 313.321 440.35 312.463 447.96 311.363C456.465 310.163 463.021 303.466 463.945 295.306C467.944 260.901 468.376 226.25 465.408 191.542C464.764 182.738 457.553 175.625 448.649 174.831C407.531 170.915 363.646 170.741 317.779 173.291C308.599 173.907 301.126 180.899 300.152 189.77C296.714 223.856 296.306 258.152 298.942 292.479C299.611 300.927 306.299 307.825 314.809 309.129C324.117 310.521 333.347 311.688 342.493 312.615C344.987 312.868 346.042 316.039 344.283 317.825C338.142 324.062 332.126 331.886 326.326 341.375C289.754 401.866 293.561 432.626 293.561 493.103C309.448 499.828 328.429 500.411 357.17 499.828C363.922 499.691 371.001 499.548 378.455 499.548C384.925 499.548 391.306 499.637 397.544 499.725C427.201 500.143 453.657 500.515 471.295 490.977C471.295 443.036 467.129 389.994 439.024 341.375C433.999 332.682 428.597 325.234 422.917 319.113Z" fill="url(#paint1_linear_1_66)"/>
<path d="M387.097 301.233C422.578 298.453 448.957 272.875 445.985 244.147C443.013 215.418 411.99 194.474 376.509 197.44C341.027 200.22 314.649 225.798 317.621 254.526C320.593 283.254 351.616 304.198 387.097 301.233Z" fill="#CAD9FF"/>
<path d="M445.341 241.35C442.183 213.178 410.974 192.975 375.679 196.497C340.383 200.018 314.376 225.596 317.534 253.954C320.692 282.126 351.901 302.329 387.196 298.807C422.491 295.285 448.499 269.523 445.341 241.35Z" fill="url(#paint2_linear_1_66)"/>
<path d="M416.797 255.788C413.258 254.763 411.203 251.118 412.23 247.587C413.258 244.055 416.911 242.005 420.45 243.03C423.989 244.055 426.044 247.701 425.017 251.232C423.875 254.763 420.222 256.813 416.797 255.788Z" fill="#9198BF"/>
<path d="M412.229 248.383C412.571 245.079 415.54 242.687 418.965 243.029C422.276 243.371 424.673 246.332 424.331 249.75C423.988 253.053 421.02 255.445 417.595 255.103C414.284 254.648 411.886 251.686 412.229 248.383Z" fill="#3B4965"/>
<path d="M413.941 248.155C413.37 247.244 414.055 245.649 415.425 244.852C416.795 243.941 418.508 244.054 419.079 244.966C419.65 245.877 418.965 247.472 417.595 248.269C416.11 249.18 414.512 249.066 413.941 248.155Z" fill="#40578C"/>
<path d="M415.084 246.675C414.856 246.333 415.084 245.764 415.655 245.422C416.226 245.08 416.797 245.08 417.025 245.422C417.253 245.764 417.025 246.333 416.454 246.675C415.997 247.017 415.312 247.017 415.084 246.675Z" fill="#9FB1D5"/>
<path d="M418.051 249.181C419.193 248.497 420.221 247.358 420.563 246.333C420.791 245.763 421.476 245.422 421.933 245.763C422.732 246.789 423.303 248.042 423.075 249.522C422.732 252.142 420.449 253.965 417.823 253.737C415.996 253.509 414.626 252.484 413.941 251.003C413.713 250.434 414.17 250.092 414.74 249.978C415.768 250.092 416.91 249.75 418.051 249.181Z" fill="#2B3956"/>
<path d="M344.066 255.788C340.527 254.763 338.472 251.118 339.5 247.587C340.527 244.055 344.18 242.005 347.72 243.03C351.259 244.055 353.314 247.701 352.286 251.232C351.145 254.763 347.491 256.813 344.066 255.788Z" fill="#9198BF"/>
<path d="M339.499 248.383C339.842 245.079 342.81 242.687 346.235 243.029C349.546 243.371 351.943 246.332 351.601 249.75C351.258 253.053 348.29 255.445 344.865 255.103C341.554 254.648 339.157 251.686 339.499 248.383Z" fill="#3B4965"/>
<path d="M341.212 248.155C340.641 247.244 341.326 245.649 342.696 244.852C344.066 243.941 345.778 244.054 346.349 244.966C346.92 245.877 346.235 247.472 344.865 248.269C343.381 249.18 341.782 249.066 341.212 248.155Z" fill="#40578C"/>
<path d="M342.354 246.675C342.126 246.333 342.354 245.764 342.925 245.422C343.496 245.08 344.067 245.08 344.295 245.422C344.523 245.764 344.295 246.333 343.724 246.675C343.268 247.017 342.583 247.017 342.354 246.675Z" fill="#9FB1D5"/>
<path d="M345.323 249.181C346.464 248.497 347.492 247.358 347.834 246.333C348.063 245.763 348.748 245.422 349.204 245.763C350.004 246.789 350.574 248.042 350.346 249.522C350.004 252.142 347.72 253.965 345.094 253.737C343.268 253.509 341.898 252.484 341.213 251.003C340.984 250.434 341.441 250.092 342.012 249.978C343.039 250.092 344.181 249.75 345.323 249.181Z" fill="#2B3956"/>
<path d="M439.791 329.61C434.556 329.141 430.594 328.787 427.11 323.568C429.214 327.769 431.965 332.648 434.965 337.966C443.998 353.984 455.281 373.99 457.89 391.482C457.308 390.979 456.379 390.134 455.159 389.024C446.457 381.107 422.914 359.688 404.382 352.437C402.167 348.647 398.863 347.108 396.211 345.872C394.023 344.853 392.278 344.04 391.955 342.34C391.048 337.574 383.23 343.124 387.8 348.793C388.304 349.419 388.83 350.004 389.362 350.549C388.676 350.75 388.019 351.009 387.392 351.329C368.031 355.294 364.556 374.131 387.391 368.183C394.527 371.393 404.941 382.778 416.261 395.153C428.047 408.037 440.813 421.992 451.88 428.912C475.266 443.532 493.255 433.617 490.656 404.37C489.795 394.675 483.425 356.602 467.821 342.406C455.279 330.996 446.492 330.209 439.791 329.61Z" fill="url(#paint3_linear_1_66)"/>
<path d="M337.747 325.056C332.782 330.508 316.895 326.543 300.016 340.918C283.136 355.294 276.8 394.675 275.939 404.37C273.34 433.617 291.329 443.532 314.715 428.912C336.413 415.346 367.369 407.947 381.933 401.396C394.344 395.813 394.344 391.482 381.932 384.541C363.309 375.05 314.914 386.117 308.706 391.482C312.181 368.183 329.307 341.91 337.747 325.056Z" fill="url(#paint4_linear_1_66)"/>
<path d="M369.56 402.653C367.319 399.61 360.679 403.487 354.131 398.815L359.251 392.641C360.206 392.687 365.375 392.799 370.492 395.246C376.889 398.306 372.362 406.457 369.56 402.653Z" fill="url(#paint5_linear_1_66)"/>
<path d="M382.919 365.603L379.393 366.136C375.565 366.679 372.417 371.643 372.079 378.322C371.668 386.019 375.089 393.099 379.77 394.109C380.369 394.239 381.01 394.255 381.617 394.16L385.143 393.627C384.536 393.723 383.934 393.667 383.296 393.576C378.615 392.566 375.194 385.486 375.605 377.789C375.943 371.111 379.052 366.185 382.919 365.603Z" fill="#628AF1"/>
<path d="M392.42 381.48C392.83 373.782 389.41 366.703 384.728 365.693C380.047 364.683 375.941 370.094 375.567 377.828C375.157 385.526 378.577 392.605 383.259 393.615C387.94 394.625 392.009 389.178 392.42 381.48Z" fill="#B7C5FF"/>
<path d="M389.395 380.784C389.632 375.95 387.272 370.453 384.326 369.858C381.418 369.224 379.054 373.636 378.818 378.47C378.582 383.304 380.959 388.857 383.867 389.49C386.81 390.159 389.159 385.618 389.395 380.784Z" fill="#AABBFF"/>
<defs>
<linearGradient id="paint0_linear_1_66" x1="557.309" y1="415.979" x2="550.513" y2="421.349" gradientUnits="userSpaceOnUse">
<stop stop-color="#FFF384"/>
<stop offset="1" stop-color="#FFE485"/>
</linearGradient>
<linearGradient id="paint1_linear_1_66" x1="380.007" y1="171.523" x2="380.007" y2="500.023" gradientUnits="userSpaceOnUse">
<stop stop-color="white"/>
<stop offset="0.494792" stop-color="#E8EAF8"/>
<stop offset="0.671875" stop-color="#E3E5F7"/>
<stop offset="1" stop-color="#B1B7E9"/>
</linearGradient>
<linearGradient id="paint2_linear_1_66" x1="382.107" y1="196.169" x2="382.107" y2="299.278" gradientUnits="userSpaceOnUse">
<stop stop-color="#EAECFF"/>
<stop offset="1" stop-color="#BCC2F4"/>
</linearGradient>
<linearGradient id="paint3_linear_1_66" x1="475.763" y1="345.876" x2="372.001" y2="345.876" gradientUnits="userSpaceOnUse">
<stop stop-color="#E0E2F6"/>
<stop offset="1" stop-color="white"/>
</linearGradient>
<linearGradient id="paint4_linear_1_66" x1="290.833" y1="345.876" x2="394.594" y2="345.876" gradientUnits="userSpaceOnUse">
<stop stop-color="#E0E2F6"/>
<stop offset="0.26131" stop-color="#E6E8F8"/>
<stop offset="1" stop-color="white"/>
</linearGradient>
<linearGradient id="paint5_linear_1_66" x1="371.418" y1="404.421" x2="358.421" y2="393.642" gradientUnits="userSpaceOnUse">
<stop stop-color="white"/>
<stop offset="0.713542" stop-color="white"/>
<stop offset="1" stop-color="white" stop-opacity="0"/>
</linearGradient>
</defs>
</svg>
